public/assets/images/banner/slack.svg

<svg width="124" height="50" viewBox="0 0 124 50" fill="none" xmlns="http://www.w3.org/2000/svg">
<foreignObject x="-10" y="-10" width="144" height="70"><div xmlns="http://www.w3.org/1999/xhtml" style="backdrop-filter:blur(5px);clip-path:url(#bgblur_0_853_13942_clip_path);height:100%;width:100%"></div></foreignObject><g data-figma-bg-blur-radius="10">
<rect width="124" height="50" rx="25" fill="white"/>
<g clip-path="url(#clip1_853_13942)">
<path d="M26.3162 25.7595C24.6922 25.7595 23.375 27.0767 23.375 28.7007V36.0577C23.375 37.6817 24.6922 38.9988 26.3162 38.9988C27.9402 38.9988 29.2573 37.6817 29.2573 36.0577V28.7007C29.2562 27.0767 27.939 25.7595 26.3162 25.7595Z" fill="#E91E63"/>
<path d="M16.0215 28.7007C16.0215 30.3258 17.3398 31.6442 18.965 31.6442C20.5902 31.6442 21.9085 30.3258 21.9085 28.7007V25.7572H18.9673C18.9662 25.7572 18.9662 25.7572 18.965 25.7572C17.3398 25.7572 16.0215 27.0755 16.0215 28.7007Z" fill="#E91E63"/>
<path d="M26.32 10.9988C26.3189 10.9988 26.3177 10.9988 26.3165 10.9988C24.6914 10.9988 23.373 12.3172 23.373 13.9423C23.373 15.5675 24.6914 16.8858 26.3165 16.8858H29.2577V13.9423C29.2577 13.9412 29.2577 13.9388 29.2577 13.9365C29.2565 12.3137 27.9417 10.9988 26.32 10.9988Z" fill="#00BCD4"/>
<path d="M18.9455 24.265H26.3165C27.9416 24.265 29.26 22.9467 29.26 21.3215C29.26 19.6963 27.9416 18.378 26.3165 18.378H18.9455C17.3203 18.378 16.002 19.6963 16.002 21.3215C16.002 22.9467 17.3203 24.265 18.9455 24.265Z" fill="#00BCD4"/>
<path d="M41.0334 18.3768C39.4105 18.3768 38.0957 19.6917 38.0957 21.3145V21.3203V24.2638H41.0369C42.662 24.2638 43.9804 22.9455 43.9804 21.3203C43.9804 19.6952 42.662 18.3768 41.0369 18.3768C41.0357 18.3768 41.0345 18.3768 41.0334 18.3768Z" fill="#4CAF50"/>
<path d="M30.748 13.9423V21.3215C30.748 22.9455 32.0652 24.2627 33.6892 24.2627C35.3132 24.2627 36.6304 22.9455 36.6304 21.3215V13.9423C36.6304 12.3183 35.3132 11.0012 33.6892 11.0012C32.0652 11.0012 30.748 12.3183 30.748 13.9423Z" fill="#4CAF50"/>
<path d="M36.6284 36.0553C36.6284 34.4313 35.3113 33.1142 33.6873 33.1142H30.7461V36.0577C30.7473 37.6805 32.0633 38.9965 33.6873 38.9965C35.3113 38.9965 36.6284 37.6793 36.6284 36.0553Z" fill="#FF9800"/>
<path d="M41.0586 25.7572H33.6876C32.0625 25.7572 30.7441 27.0755 30.7441 28.7007C30.7441 30.3258 32.0625 31.6442 33.6876 31.6442H41.0586C42.6838 31.6442 44.0021 30.3258 44.0021 28.7007C44.0021 27.0755 42.6838 25.7572 41.0586 25.7572Z" fill="#FF9800"/>
</g>
<path d="M60.84 32.16C59.8933 32.16 59 32.02 58.16 31.74C57.3333 31.4467 56.64 30.9867 56.08 30.36C55.52 29.72 55.1533 28.8867 54.98 27.86H57.52C57.68 28.38 57.9333 28.7867 58.28 29.08C58.64 29.3733 59.06 29.58 59.54 29.7C60.02 29.8067 60.5067 29.86 61 29.86C61.44 29.86 61.8533 29.8067 62.24 29.7C62.64 29.58 62.9667 29.3867 63.22 29.12C63.4867 28.8533 63.62 28.5 63.62 28.06C63.62 27.7267 63.5467 27.46 63.4 27.26C63.2667 27.0467 63.0733 26.8733 62.82 26.74C62.58 26.5933 62.2867 26.48 61.94 26.4C61.6067 26.2933 61.2467 26.2 60.86 26.12C60.4733 26.04 60.0933 25.9533 59.72 25.86C59.3467 25.7667 58.9933 25.6467 58.66 25.5C58.2333 25.3533 57.82 25.1867 57.42 25C57.0333 24.8 56.6933 24.56 56.4 24.28C56.12 24 55.8933 23.6533 55.72 23.24C55.5467 22.8267 55.46 22.3333 55.46 21.76C55.46 21.1067 55.5667 20.5467 55.78 20.08C56.0067 19.6 56.3 19.2067 56.66 18.9C57.0333 18.5933 57.4467 18.3533 57.9 18.18C58.3667 18.0067 58.8467 17.88 59.34 17.8C59.8467 17.72 60.3267 17.68 60.78 17.68C61.66 17.68 62.46 17.8267 63.18 18.12C63.9133 18.4133 64.5133 18.8667 64.98 19.48C65.4467 20.0933 65.7133 20.88 65.78 21.84H63.36C63.3067 21.3867 63.1467 21.0267 62.88 20.76C62.6133 20.48 62.28 20.28 61.88 20.16C61.48 20.0267 61.0467 19.96 60.58 19.96C60.26 19.96 59.94 19.9867 59.62 20.04C59.3133 20.0933 59.0333 20.1867 58.78 20.32C58.54 20.4533 58.34 20.6333 58.18 20.86C58.0333 21.0733 57.96 21.3467 57.96 21.68C57.96 21.9733 58.0333 22.2333 58.18 22.46C58.3267 22.6733 58.5267 22.8533 58.78 23C59.0467 23.1467 59.36 23.28 59.72 23.4C60.1867 23.5867 60.6933 23.7267 61.24 23.82C61.8 23.9133 62.3267 24.04 62.82 24.2C63.3 24.3333 63.74 24.5 64.14 24.7C64.5533 24.8867 64.9067 25.12 65.2 25.4C65.4933 25.6667 65.72 26 65.88 26.4C66.0533 26.7867 66.14 27.2533 66.14 27.8C66.14 28.6 65.9933 29.28 65.7 29.84C65.42 30.3867 65.0267 30.8333 64.52 31.18C64.0267 31.5267 63.46 31.78 62.82 31.94C62.1933 32.0867 61.5333 32.16 60.84 32.16ZM68.3245 32V17.86H70.7645V32H68.3245ZM76.4892 32.14C75.9959 32.14 75.5292 32.0733 75.0892 31.94C74.6492 31.8067 74.2559 31.6133 73.9092 31.36C73.5626 31.0933 73.2826 30.7667 73.0692 30.38C72.8692 29.98 72.7692 29.5133 72.7692 28.98C72.7692 28.3 72.9026 27.7467 73.1692 27.32C73.4359 26.88 73.7959 26.5467 74.2492 26.32C74.7159 26.0933 75.2426 25.94 75.8292 25.86C76.4159 25.7667 77.0292 25.72 77.6692 25.72H79.7292C79.7292 25.2533 79.6559 24.8533 79.5092 24.52C79.3626 24.1733 79.1292 23.9 78.8092 23.7C78.5026 23.5 78.1026 23.4 77.6092 23.4C77.2892 23.4 76.9892 23.44 76.7092 23.52C76.4426 23.5867 76.2092 23.7 76.0092 23.86C75.8226 24.0067 75.6892 24.2 75.6092 24.44H73.1092C73.2026 23.8933 73.3892 23.4267 73.6692 23.04C73.9626 22.64 74.3159 22.3133 74.7292 22.06C75.1559 21.8067 75.6226 21.62 76.1292 21.5C76.6359 21.3667 77.1492 21.3 77.6692 21.3C79.2026 21.3 80.3159 21.74 81.0092 22.62C81.7159 23.5 82.0692 24.7333 82.0692 26.32V32H79.9092L79.8492 30.64C79.5426 31.0933 79.1759 31.4267 78.7492 31.64C78.3226 31.8533 77.9092 31.9867 77.5092 32.04C77.1092 32.1067 76.7692 32.14 76.4892 32.14ZM76.9692 30.16C77.5026 30.16 77.9759 30.06 78.3892 29.86C78.8026 29.66 79.1292 29.38 79.3692 29.02C79.6226 28.66 79.7492 28.2467 79.7492 27.78V27.44H77.8292C77.5092 27.44 77.1892 27.4533 76.8692 27.48C76.5626 27.4933 76.2826 27.5467 76.0292 27.64C75.7759 27.72 75.5692 27.8467 75.4092 28.02C75.2626 28.1933 75.1892 28.44 75.1892 28.76C75.1892 29.08 75.2692 29.34 75.4292 29.54C75.6026 29.74 75.8226 29.8933 76.0892 30C76.3692 30.1067 76.6626 30.16 76.9692 30.16ZM89.0388 32.14C87.9454 32.14 87.0254 31.92 86.2788 31.48C85.5321 31.0267 84.9654 30.3933 84.5788 29.58C84.1921 28.7667 83.9988 27.8267 83.9988 26.76C83.9988 25.6933 84.1988 24.7533 84.5988 23.94C84.9988 23.1133 85.5854 22.4667 86.3588 22C87.1321 21.5333 88.0721 21.3 89.1788 21.3C89.9921 21.3 90.7121 21.44 91.3388 21.72C91.9788 22 92.4921 22.4133 92.8788 22.96C93.2788 23.4933 93.5321 24.16 93.6388 24.96H91.2388C91.0788 24.4533 90.8121 24.0867 90.4388 23.86C90.0788 23.62 89.6454 23.5 89.1388 23.5C88.4588 23.5 87.9188 23.6667 87.5188 24C87.1321 24.32 86.8521 24.7267 86.6788 25.22C86.5054 25.7133 86.4188 26.2267 86.4188 26.76C86.4188 27.32 86.5121 27.8467 86.6988 28.34C86.8854 28.82 87.1721 29.2067 87.5588 29.5C87.9588 29.7933 88.4721 29.94 89.0987 29.94C89.6054 29.94 90.0588 29.8267 90.4588 29.6C90.8721 29.3733 91.1388 29.0067 91.2588 28.5H93.7388C93.6454 29.3133 93.3721 29.9933 92.9188 30.54C92.4788 31.0733 91.9188 31.4733 91.2388 31.74C90.5588 32.0067 89.8254 32.14 89.0388 32.14ZM95.5706 32V17.86H98.0106V25.68H99.5306L102.311 21.46H105.051L101.631 26.48L105.331 32H102.491L99.6706 27.82H98.0106V32H95.5706Z" fill="#0C1018"/>
</g>
<defs>
<clipPath id="bgblur_0_853_13942_clip_path" transform="translate(10 10)"><rect width="124" height="50" rx="25"/>
</clipPath><clipPath id="clip1_853_13942">
<rect width="28" height="28" fill="white" transform="translate(16 11)"/>
</clipPath>
</defs>
</svg>

<svg xmlns="http://www.w3.org/2000/svg" width="124" height="50" fill="none" viewBox="0 0 124 50"><foreignObject width="144" height="70" x="-10" y="-10"><div xmlns="http://www.w3.org/1999/xhtml" style="backdrop-filter:blur(5px);clip-path:url(#a);height:100%;width:100%"/></foreignObject><g data-figma-bg-blur-radius="10"><rect width="124" height="50" fill="#fff" rx="25"/><g clip-path="url(#b)"><path fill="#e91e63" d="M26.316 25.76a2.94 2.94 0 0 0-2.941 2.94v7.358a2.942 2.942 0 0 0 5.882 0V28.7a2.943 2.943 0 0 0-2.94-2.942M16.022 28.7a2.944 2.944 0 0 0 5.887 0v-2.943h-2.944a2.944 2.944 0 0 0-2.943 2.944"/><path fill="#00bcd4" d="M26.32 10.999h-.003a2.944 2.944 0 0 0 0 5.887h2.94v-2.949a2.94 2.94 0 0 0-2.937-2.938m-7.374 13.266h7.37a2.944 2.944 0 0 0 0-5.887h-7.37a2.944 2.944 0 0 0 0 5.887"/><path fill="#4caf50" d="M41.033 18.377a2.937 2.937 0 0 0-2.937 2.938v2.949h2.94a2.944 2.944 0 0 0 0-5.887zm-10.285-4.435v7.38a2.942 2.942 0 0 0 5.882 0v-7.38a2.942 2.942 0 0 0-5.882 0"/><path fill="#ff9800" d="M36.628 36.055a2.94 2.94 0 0 0-2.94-2.94h-2.942v2.943a2.941 2.941 0 0 0 5.882-.003m4.431-10.298h-7.371a2.944 2.944 0 0 0 0 5.887h7.37a2.944 2.944 0 0 0 0-5.887"/></g><path fill="#0c1018" d="M60.84 32.16a8.4 8.4 0 0 1-2.68-.42 4.96 4.96 0 0 1-2.08-1.38q-.84-.96-1.1-2.5h2.54q.24.78.76 1.22.54.44 1.26.62.72.16 1.46.16.66 0 1.24-.16.6-.18.98-.58.4-.4.4-1.06 0-.5-.22-.8a1.5 1.5 0 0 0-.58-.52 3 3 0 0 0-.88-.34 11 11 0 0 0-1.08-.28 29 29 0 0 1-1.14-.26 6.6 6.6 0 0 1-1.06-.36q-.64-.22-1.24-.5a4.4 4.4 0 0 1-1.02-.72 3.2 3.2 0 0 1-.68-1.04q-.26-.62-.26-1.48 0-.98.32-1.68.34-.72.88-1.18a4.4 4.4 0 0 1 1.24-.72 7.6 7.6 0 0 1 1.44-.38 9 9 0 0 1 1.44-.12q1.32 0 2.4.44a4.16 4.16 0 0 1 1.8 1.36q.7.92.8 2.36h-2.42q-.08-.68-.48-1.08a2.24 2.24 0 0 0-1-.6q-.6-.2-1.3-.2-.48 0-.96.08a2.8 2.8 0 0 0-.84.28 1.8 1.8 0 0 0-.6.54q-.22.32-.22.82 0 .44.22.78.22.32.6.54.4.22.94.4.7.28 1.52.42.84.14 1.58.38.72.2 1.32.5.62.28 1.06.7.44.4.68 1 .26.58.26 1.4 0 1.2-.44 2.04-.42.82-1.18 1.34a5.1 5.1 0 0 1-1.7.76 8.7 8.7 0 0 1-1.98.22m7.484-.16V17.86h2.44V32zm8.165.14q-.74 0-1.4-.2a3.9 3.9 0 0 1-1.18-.58 3.1 3.1 0 0 1-.84-.98q-.3-.6-.3-1.4 0-1.02.4-1.66.4-.66 1.08-1 .7-.34 1.58-.46.88-.14 1.84-.14h2.06q0-.7-.22-1.2a1.75 1.75 0 0 0-.7-.82q-.459-.3-1.2-.3-.48 0-.9.12-.4.1-.7.34-.28.22-.4.58h-2.5q.14-.82.56-1.4.44-.6 1.06-.98.64-.38 1.4-.56.76-.2 1.54-.2 2.3 0 3.34 1.32 1.06 1.32 1.06 3.7V32h-2.16l-.06-1.36q-.46.68-1.1 1t-1.24.4q-.6.1-1.02.1m.48-1.98q.8 0 1.42-.3t.98-.84a2.1 2.1 0 0 0 .38-1.24v-.34h-1.92q-.48 0-.96.04a2.8 2.8 0 0 0-.84.16q-.38.12-.62.38-.22.26-.22.74t.24.78q.261.3.66.46.42.16.88.16m12.07 1.98q-1.641 0-2.76-.66a4.36 4.36 0 0 1-1.7-1.9q-.58-1.22-.58-2.82t.6-2.82q.6-1.24 1.76-1.94t2.82-.7q1.22 0 2.16.42.96.42 1.54 1.24.6.8.76 2h-2.4q-.24-.76-.8-1.1-.54-.36-1.3-.36-1.02 0-1.62.5a2.7 2.7 0 0 0-.84 1.22 4.6 4.6 0 0 0-.26 1.54q0 .84.28 1.58.28.72.86 1.16.6.44 1.54.44.76 0 1.36-.34.62-.34.8-1.1h2.48q-.14 1.22-.82 2.04-.66.8-1.68 1.2t-2.2.4M95.57 32V17.86h2.44v7.82h1.52l2.78-4.22h2.74l-3.42 5.02 3.7 5.52h-2.84l-2.82-4.18h-1.66V32z"/></g><defs><clipPath id="a" transform="translate(10 10)"><rect width="124" height="50" rx="25"/></clipPath><clipPath id="b"><path fill="#fff" d="M16 11h28v28H16z"/></clipPath></defs></svg>
